X: 10651
M: C|
L: 1/8
K: D
(3(ABc) |\
dAFA dfaf | gfef d2A2 | BdAd GdFd | E2EE E2 (3(ABc) |\
dAFA dfaf | gfef dcBA | BcdA BGEC | D2DD D2 :|
|: FG |\


